rospo-newyear-dark/symbolic/devices/display-projector-symbolic.svg

<svg xmlns="http://www.w3.org/2000/svg" width="16" height="16" version="1.1">
 <path style="fill:#d3dae3" d="M 2,2 C 0,2 0,4 0,4 V 10 C 0,12 2,12 2,12 H 14 C 14,12 16,12 16,10 V 4 C 16,4 16,2 14,2 Z M 8,10 4,15 H 12 Z M 11,4 C 12.66,4 14,5.34 14,7 14,8.66 12.66,10 11,10 9.34,10 8,8.66 8,7 8,5.34 9.34,4 11,4 Z"/>
</svg>

<svg height="16" width="16" xmlns="http://www.w3.org/2000/svg"><path d="m2 2c-2 0-2 2-2 2v6c0 2 2 2 2 2h12s2 0 2-2v-6s0-2-2-2zm6 8-4 5h8zm3-6c1.66 0 3 1.34 3 3s-1.34 3-3 3-3-1.34-3-3 1.34-3 3-3z" fill="#d3dae3"/></svg>
